Origami/32x32/apps/cinelerra.svg

<svg width="32" height="32" version="1" xmlns="http://www.w3.org/2000/svg">
 <rect transform="scale(1,-1)" x="2" y="-30" width="27" height="27" rx="1.35" ry="1.35" style="opacity:.2"/>
 <rect transform="scale(1,-1)" x="2" y="-29" width="27" height="27" rx="1.35" ry="1.35" style="fill:#fecd38"/>
 <path d="m4 5v3h3v-3h-3zm5 0v3h3v-3h-3zm5 0v3h3v-3h-3zm5 0v3h3v-3h-3zm5 0v3h3v-3h-3zm-19 5v13.246094h9v-13.246094h-9zm12 0v13.246094h9v-13.246094h-9zm-13 15v3h3v-3h-3zm5 0v3h3v-3h-3zm5 0v3h3v-3h-3zm5 0v3h3v-3h-3zm5 0v3h3v-3h-3z" style="opacity:.2"/>
 <path d="m4 4v3h3v-3h-3zm5 0v3h3v-3h-3zm5 0v3h3v-3h-3zm5 0v3h3v-3h-3zm5 0v3h3v-3h-3zm-19 5v13.246094h9v-13.246094h-9zm12 0v13.246094h9v-13.246094h-9zm-13 15v3h3v-3h-3zm5 0v3h3v-3h-3zm5 0v3h3v-3h-3zm5 0v3h3v-3h-3zm5 0v3h3v-3h-3z" style="fill:#336894"/>
 <path d="M 3.3496094 2 C 2.6017094 2 2 2.6017094 2 3.3496094 L 2 4.3496094 C 2 3.6017094 2.6017094 3 3.3496094 3 L 27.650391 3 C 28.398291 3 29 3.6017094 29 4.3496094 L 29 3.3496094 C 29 2.6017094 28.398291 2 27.650391 2 L 3.3496094 2 z" style="fill:#ffffff;opacity:.2"/>
</svg>

<svg xmlns="http://www.w3.org/2000/svg" width="32" height="32" version="1">
 <rect width="27" height="27" x="2" y="-30" rx="1.35" ry="1.35" transform="scale(1,-1)" style="opacity:0.2"/>
 <rect style="fill:#fecd38" width="27" height="27" x="2" y="-29" rx="1.35" ry="1.35" transform="scale(1,-1)"/>
 <path d="M 4,5 4,8 7,8 7,5 4,5 Z m 5,0 0,3 3,0 0,-3 -3,0 z m 5,0 0,3 3,0 0,-3 -3,0 z m 5,0 0,3 3,0 0,-3 -3,0 z m 5,0 0,3 3,0 0,-3 -3,0 z m -19,5 0,13.246094 9,0 L 14,10 5,10 Z m 12,0 0,13.246094 9,0 L 26,10 17,10 Z m -13,15 0,3 3,0 0,-3 -3,0 z m 5,0 0,3 3,0 0,-3 -3,0 z m 5,0 0,3 3,0 0,-3 -3,0 z m 5,0 0,3 3,0 0,-3 -3,0 z m 5,0 0,3 3,0 0,-3 -3,0 z" style="opacity:0.2"/>
 <path style="fill:#336894" d="M 4 4 L 4 7 L 7 7 L 7 4 L 4 4 z M 9 4 L 9 7 L 12 7 L 12 4 L 9 4 z M 14 4 L 14 7 L 17 7 L 17 4 L 14 4 z M 19 4 L 19 7 L 22 7 L 22 4 L 19 4 z M 24 4 L 24 7 L 27 7 L 27 4 L 24 4 z M 5 9 L 5 22.246094 L 14 22.246094 L 14 9 L 5 9 z M 17 9 L 17 22.246094 L 26 22.246094 L 26 9 L 17 9 z M 4 24 L 4 27 L 7 27 L 7 24 L 4 24 z M 9 24 L 9 27 L 12 27 L 12 24 L 9 24 z M 14 24 L 14 27 L 17 27 L 17 24 L 14 24 z M 19 24 L 19 27 L 22 27 L 22 24 L 19 24 z M 24 24 L 24 27 L 27 27 L 27 24 L 24 24 z"/>
 <path style="fill:#ffffff;opacity:0.2" d="M 3.3496094 2 C 2.6017094 2 2 2.6017094 2 3.3496094 L 2 4.3496094 C 2 3.6017094 2.6017094 3 3.3496094 3 L 27.650391 3 C 28.398291 3 29 3.6017094 29 4.3496094 L 29 3.3496094 C 29 2.6017094 28.398291 2 27.650391 2 L 3.3496094 2 z"/>
</svg>
